logos/fastify-icon.svg

<?xml version="1.0" encoding="UTF-8"?>
<svg width="256px" height="165px" viewBox="0 0 256 165" version="1.1" xmlns="http://www.w3.org/2000/svg" xmlns:xlink="http://www.w3.org/1999/xlink" preserveAspectRatio="xMidYMid">
    <g>
        <path d="M247.942394,23.313675 L256,2.4439738 L255.649669,1.15108664 L175.932749,22.1542472 C184.432439,9.85930729 181.513017,0 181.513017,0 C181.513017,0 156.055651,16.2570135 136.804145,15.8316119 C117.552638,15.4062103 111.346779,10.2680265 81.8272458,19.6852497 C52.3077124,29.0941318 43.9665048,57.9797335 35.4084259,64.1855919 C26.850347,70.3914503 0,90.6021961 0,90.6021961 L0.0583884526,90.960868 L24.2645727,83.2535923 C24.2645727,83.2535923 17.6249715,89.5094979 3.51998957,108.51911 C3.51998957,108.51911 3.27809456,108.293897 2.86103418,107.910202 L2.8860578,108.043661 C2.8860578,108.043661 14.2217588,125.368349 25.3489297,122.165325 C26.4666515,121.840018 27.7261738,121.306181 29.102473,120.60552 C33.5817015,123.099541 39.4288879,125.551856 45.8849826,126.227493 C45.8849826,126.227493 41.5141898,121.147698 37.8690821,115.367241 C38.8533446,114.733309 39.8626307,114.074354 40.8885993,113.407057 L40.4131504,113.740706 L49.6301847,117.127236 L48.6125574,108.460721 C48.6459223,108.444039 48.6709459,108.419015 48.7043107,108.402333 L57.7628621,111.730475 L56.6367991,103.848034 C57.7878857,103.247467 58.9306311,102.680265 60.0733766,102.154768 L69.5156235,66.4377179 L108.560816,39.8042423 L105.457887,47.6116125 C97.5420807,67.0799909 82.6780489,71.6759962 82.6780489,71.6759962 L76.4721905,74.0282167 C71.8595028,79.4833665 69.9160014,80.8263009 68.331172,99.1352514 C72.0513506,98.2010361 75.604705,97.9758235 78.8244111,98.8433091 C95.5068261,103.33922 101.287283,123.44153 96.7913721,129.005116 C95.665309,130.398097 92.9877814,132.775341 89.6095924,135.569646 L82.8365319,135.569646 L82.7447786,141.05816 C82.5112248,141.241667 82.277671,141.416832 82.0524584,141.600339 L75.162621,141.600339 L75.0792089,146.955394 C74.4703007,147.422502 73.8613926,147.872927 73.2775081,148.315011 C66.804731,148.44847 58.605324,142.801473 58.605324,142.801473 C58.605324,147.939657 62.8843635,155.847121 62.8843635,155.847121 C62.8843635,155.847121 63.1679645,155.713662 63.6434134,155.480108 C63.226353,155.788733 62.9927992,155.955557 62.9927992,155.955557 C62.9927992,155.955557 80.3174872,167.508129 91.2277866,163.22909 C100.928611,159.425499 126.043987,139.623473 147.722785,130.247955 L213.326382,112.964973 L221.976215,90.5521488 L171.979017,103.722916 L171.979017,83.5955818 L230.642729,68.1393242 L239.292561,45.7264996 L171.995699,63.4599068 L171.995699,43.3242319 L247.942394,23.313675 Z" fill="#000000" fill-rule="nonzero"></path>
    </g>
</svg>

<svg width="256" height="165" xmlns="http://www.w3.org/2000/svg" preserveAspectRatio="xMidYMid">
	<path d="M247.942 23.314 256 2.444l-.35-1.293-79.717 21.003C184.433 9.86 181.513 0 181.513 0s-25.457 16.257-44.709 15.832c-19.251-.426-25.457-5.564-54.977 3.853-29.52 9.41-37.86 38.295-46.419 44.5C26.85 70.392 0 90.603 0 90.603l.058.359 24.207-7.707s-6.64 6.255-20.745 25.265l-.659-.609.025.134s11.336 17.324 22.463 14.121c1.118-.325 2.377-.859 3.753-1.56 4.48 2.495 10.327 4.947 16.783 5.622 0 0-4.37-5.08-8.016-10.86.984-.634 1.994-1.293 3.02-1.96l-.476.334 9.217 3.386-1.017-8.666c.033-.017.058-.042.091-.059l9.059 3.328-1.126-7.882a76.868 76.868 0 0 1 3.436-1.693l9.443-35.717 39.045-26.634-3.103 7.808c-7.916 19.468-22.78 24.064-22.78 24.064l-6.206 2.352c-4.612 5.455-6.556 6.798-8.14 25.107 3.72-.934 7.273-1.16 10.492-.292 16.683 4.496 22.463 24.599 17.967 30.162-1.126 1.393-3.803 3.77-7.181 6.565h-6.773l-.092 5.488c-.234.184-.467.359-.693.542h-6.89l-.083 5.355c-.609.468-1.218.918-1.801 1.36-6.473.133-14.673-5.514-14.673-5.514 0 5.139 4.28 13.046 4.28 13.046s.283-.133.758-.367c-.417.309-.65.476-.65.476s17.324 11.552 28.235 7.273c9.7-3.804 34.816-23.606 56.495-32.981l65.603-17.283 8.65-22.413-49.997 13.17V83.597l58.664-15.457 8.65-22.413-67.297 17.734V43.324l75.946-20.01Z"/>
</svg>
